X: 15437
T: Glen McCabe's
R: reel
M: 4/4
K: Dmajor
|:dfef dAFA|BGGB AFFA|dfef dAFA|BAGF E/E/E EA|
dfef dAFA|BGGB AFFA|dfed cBAF|GBAF D/D/D D2:|
|:adda bggf|adda Aceg|fdec dBAF GBAF E/E/E EG|
[1 adda bggf|adda Aceg|fdec dBAF|GBAF D/D/D D2:|
[2 FAGB AF D2|dATgf eEEg|fdec dBAF|GBAF D/D/D D2||

